X: 31140
T: Paddy Fahey's
R: jig
M: 6/8
K: Gmajor
GBD GB/c/d|geg dBG|DFA cAD|BAG FDB|
G2 D GBd|ge/f/g dBG|DFA cAF|AGF G2:|
gbg dBG|DFA cBA|GBd gfg|faf dfa|
g/a/bg bag|faf dfa|gfd cAF|AGF G2:|

